X:1
T:Moline, CM
T:Williiam James Kirkpatrick, 1901
T:Moline, CM
T:Public Domain
C:Williiam James Kirkpatrick, 1901
Z:Public Domain
%%score ( 1 2 ) ( 3 4 )
L:1/8
M:3/4
K:Ab
V:1 treble 
V:2 treble 
V:3 bass 
V:4 bass 
V:1
 [CE]2 | ([CE]2 [Ec]2) [DB]2 | (B2 A2) [DF]2 | [CE]4 [A,C]2 | [CE]4 [CE]2 | (E2 [EB]2) [EA]2 | %6
 (G2 d2) [Ec]2 | [EB]6- | [EB]4 [Ge]2 | (e2 d2) [Ac]2 | (c2 B2) [EA]2 | ([CA]2 [DB]2) [Ec]2 | %12
 [CE]4 [CE]2 | ([DF]2 [FB]2) [FA]2 | [EA]4 [EG]2 | [EA]6- | [EA]4 |] %17
V:2
 x2 | x6 | C4 x2 | x6 | x6 | E2 x4 | E4 x2 | x6 | x6 | A4 x2 | E4 x2 | x6 | x6 | x6 | x6 | x6 | %16
 x4 |] %17
V:3
 [A,,A,]2 | [A,,A,]4 [A,,E,]2 | [A,,E,]4 [A,,A,]2 | [A,,A,]4 [A,,E,]2 | [A,,A,]4 [A,,A,]2 | %5
 (G,2 D2) [E,C]2 | [E,B,]4 [E,A,]2 | [E,G,]6- | [E,G,]4 [E,B,]2 | (C2 F2) [A,E]2 | (E2 D2) [A,C]2 | %11
 [A,,A,]4 [A,,A,]2 | [A,,A,]4 [A,,A,]2 | (A,2 D2) [D,D]2 | [E,C]4 [E,B,]2 | [A,,C]6- | [A,,C]4 |] %17
V:4
 x2 | x6 | x6 | x6 | x6 | E,4 x2 | x6 | x6 | x6 | A,4 x2 | A,4 x2 | x6 | x6 | D,4 x2 | x6 | x6 | %16
 x4 |] %17

